X:1
T:Maedel wasch dich
R:Rheinlaender
A:Deutschland
%%textfont Helvetica-Narrow 10pt
%%begintext align
B:"Das kleine dicke Liederbuch", Heide Buhmann, Hanspeter Haeseler, 5.Auflage, Eigenverlag, Schluechtern 1989
N:dort in C (1.  2. teil) und F (3.teil), einstimmig mit harmonie-buchstaben, Seite 230
N:die tanz-beschreibung die im "kleinen dicken Liederbuch" fuer den Rheinlaender gegeben wird entspricht der ueblicherweise als "Schottisch" bezeichneten:in paar-fassung gegenueber wechselschritt hin und her, dann dreher.
%%endtext 
F:http://simonwascher.info
Z:abc transcription Simon Wascher
M:2/4
L:1/16
K:C
EF |\
G2e2 F2d2 | E2c2 cGEG | D2B2 BGDG | E2c2 cGEF |
G2e2 F2d2 | E2c2 cGEG | D2B2 BGAB  c2c2 c2 :|
|: G2 |\
G2EG c2c2 | c2Bc e2e2 | e2de f2B2 | cedc BAGF |
G2EG c2c2 | c2Bc e2e2 | agfe dcBd |c2c2 c2 :|
K:F
c2c2 cAFA | d2d2 c4 | efgf edc=B | cdcB ABAB |
c2c2 cAFA | d2d2 c4 | efgf ecde | f2f2 f2 :|
%%wordsfont Times-Italic 11pt
W:aus Simon Waschers TradArchiv
